X: 315
T: TARENTELLE.	 Op. 43
C: Fryderyk Chopin
%%abc-version 2.0
%%abcx-abcm2ps-target-version 5.9.1 (29 Sep 2008)
%%abc-creator hum2abc beta
%%abcx-conversion-date 2021/10/03 11:23:51
%%abc-edited-by Zofia Niedbalska
%%abc-edited-by Wojciech Jakubiak-Danek
%%abcx-initial-encoding-date 2019-09-05
%%humdrum-veritas 3774954921
%%humdrum-veritas-data 2278080727
%%linebreak <none>
%%barnumbers 0
L: 1/8
M: 6/8
N: Derived from 043-1a-TR.krn
P: Tarentelle Pour Piano Par F. Chopin.
Q: "Presto."
%%staves {1 2}
V: 1 clef=treble
V: 2 clef=bass
K: Ab
[V:1] E2E [I:setbarnb 1]| 
[V:2] z2z | 
[V:1] e2eE2E | 
[V:2] z6 | 
[V:1] e2eE2E | 
[V:2] z6 | 
[V:1] =D2D_D2D |]  
[V:2] z6 |]  
[V:1] CD=D EGF & C4x2 [I:setbarnb 5]| 
[V:2] A,,A,E, A,,A,E, | 
[V:1] [E2B,2][EB,][A2D2][AD] | 
[V:2] G,,G,E, F,,F,D, | 
[V:1] G,2G,[G2C2]G | 
[V:2] =E,,=E,C, E,,E,C, | 
[V:1] _G,2G,_G2G & x3_C3 | 
[V:2] _E,,_E,_C, E,,E,C, | 
[V:1] !accent!F6 & F,G,=A, B,CD | 
[V:2] E,,E,F,, D,,D,F,, | 
[V:1] [F2E2][FE][d2B2][dB] | 
[V:2] C,,C,F,, B,,,B,,F,, | 
[V:1] [E2D2][ED][c2A2]c | 
[V:2] E,,G,E, E,,A,E, | 
[V:1] B2BA2A & D3C3 | 
[V:2] E,,G,E, A,,A,E, | 
[V:1] CD=D EGF & C4x2 | 
[V:2] A,,A,E, A,,A,E, | 
[V:1] [E2B,2][EB,][A2D2][AD] | 
[V:2] G,,G,E, F,,F,D, | 
[V:1] G,2G,[G2C2]G | 
[V:2] =E,,=E,C, E,,E,C, | 
[V:1] _G,2G,_G2G & x3_C3 | 
[V:2] _E,,_E,_C, E,,E,C, | 
[V:1] !accent!F6 & F,G,=A, B,CD | 
[V:2] E,,E,F,, D,,D,F,, | 
[V:1] [F2E2][FE][d2B2][dB] | 
[V:2] C,,C,F,, B,,,B,,F,, | 
[V:1] [E2D2][ED][c2A2]c | 
[V:2] E,,G,E, E,,A,E, | 
[V:1] B2BA2A & D3C3 | 
[V:2] E,,G,E, A,,A,E, | 
[V:1] !accent![e2E2]>d2AB | 
[V:2] [E,2E,,2]>_F2_CD | 
[V:1] _c_GA B_FG | 
[V:2] EB,_C DA,B, | 
[V:1] AE_F _GDE | 
[V:2] _C_G,A, B,_F,G, | 
[V:1] _F_CDE3- & x_C2C3- | 
[V:2] A,E,_F,_G,3 | 
[V:1] E2>D2ED & C3B,3 | 
[V:2] _C,E,_F,_G,2G, | 
[V:1] _CDC B,_CB, & A,3x3 | 
[V:2] x3G,3 & A,,_C,D,E,2E, | 
[V:1] A,B,A, _G,A,G, | 
[V:2] _F,3E,3 & _F,,A,,B,,_C,2C, | 
[V:1] _F,_G,F,[E,3_C,3] | 
[V:2] D,3x3 & D,,_F,,_G,,A,,3 | 
[V:1] !accent![e'2e2]>d'2ab | 
[V:2] [E,,2E,,,2]>[K:clef=treble]_f2_cd | 
[V:1] _c'_ga b_fg | 
[V:2] eB_c dAB | 
[V:1] ae_f _gde | 
[V:2] _c_GA B_F_G | 
[V:1] _f_cd[e3-c3] | 
[V:2] AE_F_G3[K:clef=bass] | 
[V:1] e2>__B2ed & B3__B2x | 
[V:2] z2D,[_F2__B,2]D, | 
[V:1] __B_cB A_BA | 
[V:2] [_F2__B,2]D,[F2_B,2]D, | 
[V:1] GAG BcB & x3D3 | 
[V:2] [E2B,2]E,[E2G,2]E, | 
[V:1] [A3C3]z2z | 
[V:2] [E3A,3][A,3A,,3] | 
[V:1] [e2E2]>d2AB | 
[V:2] [E,2E,,2]>_F2_CD | 
[V:1] _c_GA B_FG | 
[V:2] EB,_C DA,B, | 
[V:1] AE_F _GDE | 
[V:2] _C_G,A, B,_F,G, | 
[V:1] _F_CDE3- & x_C2C3- | 
[V:2] A,E,_F,_G,3 | 
[V:1] E2>D2ED & C3B,3 | 
[V:2] _C,E,_F,_G,2G, | 
[V:1] _CDC B,CB, & A,3x3 | 
[V:2] x3G,3 & A,,_C,D,E,2E, | 
[V:1] A,B,A, _G,A,G, | 
[V:2] _F,3E,3 & _F,,A,,B,,_C,2C, | 
[V:1] _F,_G,F,[E,3_C,3] | 
[V:2] D,3x3 & D,,_F,,_G,,A,,3 | 
[V:1] [e'2e2]>d'2ab | 
[V:2] !accent![E,,2E,,,2]>[K:clef=treble]_f2_cd | 
[V:1] _c'_ga b_fg | 
[V:2] eB_c dAB | 
[V:1] ae_f _gde | 
[V:2] _c_GA B_F_G | 
[V:1] x3e3- & _f_cdc3 | 
[V:2] AE_F_G3[K:clef=bass] | 
[V:1] e2>__B2ed & B3__B2x | 
[V:2] z2D,[_F2__B,2]D, | 
[V:1] __B_cB A_BA | 
[V:2] [_F2__B,2]D,[F2_B,2]D, | 
[V:1] GAG BcB & x3D3 | 
[V:2] [E2B,2]E,[E2G,2]E, | 
[V:1] [A3C3]z2=A | 
[V:2] [E3A,3][A,3A,,3] | 
[V:1] B2BB2c | 
[V:2] D,_FA, E,EG, | 
[V:1] A2A A{/B}AG | 
[V:2] F,CA, C,EA, | 
[V:1] ABc de_f | 
[V:2] D,_FA, _F,DA, | 
[V:1] A2A A z =A | 
[V:2] A,,CE, C,E_A, | 
[V:1] B2BB2c | 
[V:2] D,_FA, E,EG, | 
[V:1] A2A A{/B}AG | 
[V:2] F,CA, C,EA, | 
[V:1] ABc de_f | 
[V:2] D,_FA, _F,DA, | 
[V:1] a6- & A3A2=A | 
[V:2] A,,CE, C,EA, | 
[V:1] a6 & B2BB2c | 
[V:2] D,_FA, E,EG, | 
[V:1] A2A A{/B}AG | 
[V:2] F,CA, C,EA, | 
[V:1] ABc de_f | 
[V:2] D,_FA, _F,DA, | 
[V:1] A2A A z =A | 
[V:2] A,,CE, C,EA, | 
[V:1] B2BB2c | 
[V:2] D,_FA, E,DG, | 
[V:1] A2A A{/B}AG | 
[V:2] F,CA, C,EA, | 
[V:1] ABc de_f | 
[V:2] _D,_FA, _F,DA, | 
[V:1] a6 & A3-A2c | 
[V:2] A,,CE, C,EA, | 
[V:1] c'2cc'2c | 
[V:2] !arpeggio![=E2B,2G,2C,2]z[K:clef=treble] c=B_B | 
[V:1] [d'2a2f2]cc'2c | 
[V:2] =A_AG _GF=E | 
[V:1] [d'2b2g2=e2]cc'2c | 
[V:2] _E=D_D[K:clef=bass] C=B,_B, | 
[V:1] [d'2_a2f2]cc'2c | 
[V:2] =A,_A,G, _G,F,_F, | 
[V:1] !accent![e'2d'2g2e2]z E=EF | 
[V:2] [E,2E,,2]E,[D2G,2]E, | 
[V:1] ^FGA =AB=B | 
[V:2] [=F2C2A,2]E,E2E, | 
[V:1] cd=d e=ef | 
[V:2] [=F2D2G,2]E,E2E, | 
[V:1] ^fga =ab=b | 
[V:2] [=F2C2A,2]E,E2E, | 
[V:1] c'2cc'2c | 
[V:2] !arpeggio![=E2B,2G,2C,2]z[K:clef=treble] c=B_B | 
[V:1] [d'2a2f2]cc'2c | 
[V:2] =A_AG _GF=E[K:clef=bass] | 
[V:1] [d'2b2g2=e2]cc'2c | 
[V:2] _E=D_D C=B,_B, | 
[V:1] [d'2a2f2]cc'2c | 
[V:2] =A,_A,G, _G,F,_F, | 
[V:1] !accent![e'2d'2g2e2]z E=EF | 
[V:2] [E,2E,,2]E,[D2G,2]E, | 
[V:1] ^FGA =AB=B | 
[V:2] [=F2C2A,2]E,E2E, | 
[V:1] cd=d efe | 
[V:2] [F2D2G,2]E,E2z | 
[V:1] fef eFE | 
[V:2] z6 | 
[V:1] !accent!_G2>-G2FE & C3C3 | 
[V:2] A,,B,A, A,,A,_G, | 
[V:1] F2F FGA & D3C3 | 
[V:2] D,A,F, A,,CF, | 
[V:1] G2G GAB & F3=E3 | 
[V:2] B,,DF, C,CG, | 
[V:1] A2AA2A & F3E3 | 
[V:2] F,CA, _C,_CF, | 
[V:1] A2AA2A & =D3E3 | 
[V:2] B,,B,F, _C,_CF, | 
[V:1] A2AA2A & =D3E3 | 
[V:2] B,,B,F, _C,_CF, | 
[V:1] A2A^G2G & =D3D3 | 
[V:2] _C,_CF, =B,,=B,=E, | 
[V:1] =A2A =GAG & =D3^C3 | 
[V:2] =A,,=A,=E, A,,A,E, | 
[V:1] _G2>-G2FE & D3C3 | 
[V:2] __B,,__B,E, A,,A,_G, | 
[V:1] F2F FGA & D3C3 | 
[V:2] D,A,F, A,,CF, | 
[V:1] =G2G GAB & F3=E3 | 
[V:2] B,,DF, C,CG, | 
[V:1] A2A=A2A & F3_G3 | 
[V:2] F,CA, E,C_G, | 
[V:1] B2B=B2B & F3[A3F3] | 
[V:2] =D,B,F, _D,=B,F, | 
[V:1] c2cd2d & [A3F3][A3F3] | 
[V:2] C,CF, =B,,DF, | 
[V:1] c2aa2g & A3[c3B3] | 
[V:2] =C,FC C,=EC | 
[V:1] g2ff2F & [c3B3][c2A2]x | 
[V:2] F,=EC F,FC | 
[V:1] _G2>-G2FE & C3C3 | 
[V:2] A,,B,A, A,,A,_G, | 
[V:1] F2F FGA & D3C3 | 
[V:2] D,A,F, A,,CF, | 
[V:1] G2G GAB & F3=E3 | 
[V:2] B,,DF, C,CG, | 
[V:1] A2AA2A & F3E3 | 
[V:2] F,CA, _C,_CF, | 
[V:1] A2AA2A & =D3E3 | 
[V:2] B,,B,F, _C,_CF, | 
[V:1] A2AA2A & =D3E3 | 
[V:2] B,,B,F, _C,_CF, | 
[V:1] A2A^G2G & =D3D3 | 
[V:2] _C,_CF, =B,,=B,=E, | 
[V:1] =A2A =GAG & =D3^C3- | 
[V:2] =A,,=A,=E, A,,A,E, | 
[V:1] _G2>-G2FE & D3C3 | 
[V:2] __B,,__B,E, A,,A,_G, | 
[V:1] F2F FGA & D3C3 | 
[V:2] D,A,F, A,,CF, | 
[V:1] =G2G GAB & F3=E3 | 
[V:2] B,,DF, C,CG, | 
[V:1] A2A=A2A & F3_G3 | 
[V:2] F,CA, E,C_G, | 
[V:1] B2B=B2B & F3[A3F3] | 
[V:2] =D,B,F, _D,=B,F, | 
[V:1] c2cd2d & [A3F3][A3F3] | 
[V:2] C,CF, =B,,DF, | 
[V:1] c2aa2g & A3[c3B3] | 
[V:2] =C,FC C,=EC | 
[V:1] g2ff2F & [c3B3][c2A2]x | 
[V:2] F,=EC F,FC | 
[V:1] !accent![c2C2]z d'e'd' & x3a3 | 
[V:2] [C,2C,,2]z[K:clef=treble] FdA & x3F3 | 
[V:1] c'2>b2c'b & c'egf3 | 
[V:2] EcG DBF & E3D3 | 
[V:1] a2>g2ag & aced3 | 
[V:2] CAE B,GD[K:clef=bass] & C3B,3 | 
[V:1] f2>e2fe & fAcB3 | 
[V:2] A,3G,3 & A,FC G,EB, | 
[V:1] d2>c2dc & dFAG3 | 
[V:2] F,3E,3 & F,DA, E,CG, | 
[V:1] B2>A2BA & BDFE3 | 
[V:2] D,3C,3 & D,B,F, C,A,E, | 
[V:1] G2G {/GB}A2G & [F3_D3][F3=D3] | 
[V:2] B,,3x3 & B,,G,F, =B,,=DG, | 
[V:1] [G3=E3]!accent![c3C3] | 
[V:2] C,CG, =E,C,G,, | 
[V:1] x2>d''2e''d'' & [c'2c2]za'3 | 
[V:2] C,,2z[K:clef=treble]f3 & x2>f2d'a | 
[V:1] c''2>b'2c''b' & c''e'g'f'3 | 
[V:2] e3d3 & ec'g dbf | 
[V:1] a'2>g'2a'g' & a'c'e'd'3 | 
[V:2] c3B3 & cae Bgd | 
[V:1] f'2>e'2f'e' & f'ac'b3 | 
[V:2] A3G3 & Afc GeB | 
[V:1] d'2>c'2d'c' & d'fag3 | 
[V:2] F3E3 & FdA EcG | 
[V:1] b2>a2ba & bdfe3 | 
[V:2] D3C3 & DBF CAE | 
[V:1] g2g {/gb}a2g & [f3_d3][f3=d3] | 
[V:2] B,3=B,3 & B,G_D =B,=dG- | 
[V:1] [g2=e2]c'c2c | 
[V:2] [G2C2]zz2z[K:clef=bass] | 
[V:1] _G2>-G2FE & C3C2x | 
[V:2] A,,B,A, A,,A,_G, | 
[V:1] F2F FGA & D3C3 | 
[V:2] D,A,F, A,,CF, | 
[V:1] G2G GAB & F3=E3 | 
[V:2] A,,DF, C,CG, | 
[V:1] A2AA2A & F3E3 | 
[V:2] F,CA, _C,_CF, | 
[V:1] A2AA2A & =D3E3 | 
[V:2] B,,B,F, _C,_CF, | 
[V:1] A2AA2A & =D3E3 | 
[V:2] B,,B,F, _C,_CF, | 
[V:1] A2A^G2G & =D3D3 | 
[V:2] _C,_CF, =B,,=B,=E, | 
[V:1] =A2A =GAG & =D3^C3- | 
[V:2] =A,,=A,=E, A,,A,E, | 
[V:1] _G2>-G2FE & D3C3 | 
[V:2] __B,,__B,E, A,,A,_G, | 
[V:1] F2F FGA & D3C3 | 
[V:2] D,A,F, A,,CF, | 
[V:1] =G2G GAB & F3=E3 | 
[V:2] B,,DF, C,CG, | 
[V:1] A2A=A2A & F3_G3 | 
[V:2] F,CA, E,C_G, | 
[V:1] B2B=B2B & F3[A3F3] | 
[V:2] =D,B,F, _D,=B,F, | 
[V:1] c2cd2d & [A3F3][A3F3] | 
[V:2] C,CF, =B,,DF, | 
[V:1] c2aa2g & A3[c3B3] | 
[V:2] =C,FC C,=EC | 
[V:1] g2ff2F & [c3B3][c2A2]x | 
[V:2] F,=EC F,FC | 
[V:1] !accent![c2A2E2C2]z BcB & x3!accent![_F3D3] | 
[V:2] [A,2E,2A,,2]z[D,3A,,3D,,3] | 
[V:1] A2Ac2c & !accent![E3C3]F3 | 
[V:2] [A,,2A,,,2]z D,A,D, | 
[V:1] A2Ac2c & E3F3 | 
[V:2] C,A,C, D,A,=D, | 
[V:1] BcB GFE & D3x3 | 
[V:2] [G,2E,2]z[E,3E,,3] | 
[V:1] !accent![c2A2E2C2]z BcB & x3!accent![_F3D3] | 
[V:2] [A,2E,2A,,2]z[D,2A,,2D,,2]z | 
[V:1] A2Ac2c & !accent![E3C3]F3 | 
[V:2] [A,,2A,,,2]z D,A,D, | 
[V:1] A2Ac2c & E3F3 | 
[V:2] C,A,C, D,A,=D, | 
[V:1] BcB =ABe & D3!accent![G3D3] | 
[V:2] [G,2E,2]z[E,3E,,3] | 
[V:1] !accent![c2A2E2C2]z BcB & x3!accent![_F3D3] | 
[V:2] [A,2E,2A,,2]z[D,3A,,3D,,3] | 
[V:1] A2Ac2c & !accent![E3C3]F3 | 
[V:2] [A,,2A,,,2]z D,A,D, | 
[V:1] A2Ac2c & E3F3 | 
[V:2] C,A,C, D,A,=D, | 
[V:1] BcB GFE & D3x3 | 
[V:2] [G,2E,2]z[E,3E,,3] | 
[V:1] !accent![c2A2E2C2]z BcB & x3!accent![_F3D3] | 
[V:2] [A,2E,2A,,2]z[D,2A,,2D,,2]z | 
[V:1] A2Ac2c & [E3C3]F3 | 
[V:2] [A,,2A,,,2]z D,A,D, | 
[V:1] A2Ac2c & E3F3 | 
[V:2] C,A,C, D,A,=D, | 
[V:1] BeE eEe & D3x3 | 
[V:2] [G,2E,2]z[E,2E,,2]z | 
[V:1] !accent!_cde !accent!_f_ga | 
[V:2] [E,,2E,,,2]z[_F3_C3A,3E,3] | 
[V:1] !accent!b_c'd' !accent!e'_f'd' | 
[V:2] [F3C3A,3E,3][F3C3A,3E,3] | 
[V:1] !accent!_c'ba !accent!_g_fe | 
[V:2] [_F3_C3A,3E,3][F3C3A,3E,3] | 
[V:1] !accent!d_cA !accent!BeE | 
[V:2] [F3C3A,3E,3][E3B,3G,3E,3] | 
[V:1] _F_GA !accent!B_cd | 
[V:2] [E,3E,,3][_F3_C3A,3E,3] | 
[V:1] !accent!e_f_g !accent!ab_c' | 
[V:2] [_F3_C3A,3E,3][F3C3A,3E,3] | 
[V:1] !accent!aba !accent!_gag | 
[V:2] [_F3_C3A,3E,3][F3C3A,3E,3] | 
[V:1] !accent!_f_gf!accent!e3 | 
[V:2] [_F3_C3A,3E,3][E3B,3G,3E,3] | 
[V:1] !accent!_f2>!accent!_g2ab | 
[V:2] [E,,2E,,,2]z[_F3_C3A,3E,3] | 
[V:1] !accent!_c'd'e' !accent!_f'_g'a' | 
[V:2] [_F3_C3A,3E,3][F3C3A,3E,3] | 
[V:1] !accent!_g'a'_f' !accent!e'f'd' | 
[V:2] [_F3_C3A,3E,3][F3C3A,3E,3] | 
[V:1] !accent!_c'd'c' !accent!be'e | 
[V:2] [_F3_C3A,3E,3][E3B,3G,3E,3] | 
[V:1] ba_g !accent!ag_f | 
[V:2] [E,3E,,3][A3C3A,3E,3] | 
[V:1] !accent!_g_fe !accent!fed | 
[V:2] [_F3_C3A,3E,3][F3C3A,3E,3] | 
[V:1] !accent!c=B_B =A_AG | 
[V:2] [E2D2G,2E,2]zz2z | 
[V:1] _GF=E _E=D_D | 
[V:2] z6 | 
[V:1] CD=D EGF & C4x2 | 
[V:2] A,,A,E, A,,A,E, | 
[V:1] [E2B,2][EB,][A2D2][AD-] | 
[V:2] G,,G,E, F,,F,D, | 
[V:1] [D2G,2]G,G2G & x3C3- | 
[V:2] =E,,=E,D, E,,E,C, | 
[V:1] _G,2G,_G2G & C3_C3 | 
[V:2] _E,,E,C, E,,E,_C, | 
[V:1] !accent!F6- & F,G,=A, B,CD | 
[V:2] E,,E,F,, D,,D,F,, | 
[V:1] F2[FE]x3 & E2x[d2B2][dB] | 
[V:2] C,,C,F,, B,,,B,,F,, | 
[V:1] [E2D2][ED][c2A2]c | 
[V:2] E,,G,E, E,,A,E, | 
[V:1] B2BA2A & D3C3 | 
[V:2] E,,G,E, A,,A,E, | 
[V:1] CD=D EGF & C6 | 
[V:2] A,,A,E, A,,A,E, | 
[V:1] [E2B,2][EB,][A2D2][AD-] | 
[V:2] G,,G,E, F,,F,D, | 
[V:1] G,2G,G2G & D2xC3- | 
[V:2] =E,,=E,D, E,,E,C, | 
[V:1] _G,2G,_G2G & C3_C3 | 
[V:2] _E,,E,C, E,,E,_C, | 
[V:1] !accent!F6- & F,G,=A, B,CD | 
[V:2] E,,E,F,, D,,D,F,, | 
[V:1] F2[FE][d2B2][dB] & E2x4 | 
[V:2] C,,C,F,, B,,,B,,F,, | 
[V:1] [E2D2][ED][c2A2]c | 
[V:2] E,,G,E, E,,A,E, | 
[V:1] B2BA2A & D3C3 | 
[V:2] E,,G,E, A,,A,E, | 
[V:1] !accent!e6- & [e2E2]>d2AB | 
[V:2] [E,2E,,2]>_F2_CD | 
[V:1] e6 & _c_GA B_FG | 
[V:2] EB,_C DA,B, | 
[V:1] AE_F _GDE | 
[V:2] _C_G,A, B,_F,G, | 
[V:1] _F_CD[E3C3]- | 
[V:2] A,E,_F,_G,3 | 
[V:1] [E2C2]>D2ED & x3B,3 | 
[V:2] _C,E,_F,_G,2G, | 
[V:1] _CDC B,CB, & A,3G,3 | 
[V:2] A,,C,D,E,2E, | 
[V:1] A,B,A, _G,A,G, & _F,3E,3 | 
[V:2] _F,,A,,B,,_C,2C, | 
[V:1] _F,G,F,E,3 & D,3_C,3 | 
[V:2] D,,_F,,_G,,A,,3 | 
[V:1] !accent![e'3e3]e'3 & x2>!accent!d'2ab | 
[V:2] [E,,2E,,,2]>[K:clef=treble]_f2_cd | 
[V:1] e'3e'3 & !accent!_c'_ga !accent!b_fg | 
[V:2] eB_c dAB | 
[V:1] e'3e'3 & !accent!ae_f !accent!_gde | 
[V:2] c_GA B_FG | 
[V:1] !accent!_f_cd!accent![e3_c3] | 
[V:2] AE_F_G3[K:clef=bass] | 
[V:1] B2>__B2ed & x3__B3 | 
[V:2] z2D,[_F2__B,2]D, | 
[V:1] __B_cB A_BA | 
[V:2] [_F2__B,2]D,[F2_B,2]D, | 
[V:1] GAG BcB & x3D3 | 
[V:2] [E2B,2]E,[E2G,2]E, | 
[V:1] A3z2z & C3x3 | 
[V:2] [E3A,3][A,3A,,3] | 
[V:1] e6- & !accent![e2E2]>d2AB | 
[V:2] [E,2E,,2]>_F2_CD | 
[V:1] e6 & _c_GA B_FG | 
[V:2] EB,_C DA,B, | 
[V:1] AE_F _GDE | 
[V:2] _C_G,A, B,_F,G, | 
[V:1] _F_CD!accent![E3C3]- & x_C2x3 | 
[V:2] A,E,_F,_G,3 | 
[V:1] [E2C2]>D2ED & x3B,3 | 
[V:2] _C,E,_F,_G,2G, | 
[V:1] _CDC B,CB, & A,3G,3 | 
[V:2] A,,_C,D,E,2E, | 
[V:1] A,B,A, _G,A,G, & _F,3E,3 | 
[V:2] _F,,A,,B,,_C,2C, | 
[V:1] _F,_G,F,E,3 & D,3_C,3 | 
[V:2] D,,_F,,_G,,A,,3 | 
[V:1] !accent![e'2e2]>!accent![d'2b2d2]fg | 
[V:2] [E,,2E,,,2]E,,E,2E,, | 
[V:1] !accent![_c'a_c]e_f !accent![b_gB]de | 
[V:2] E,2E,,E,2E,, | 
[V:1] !accent![a_fA]_cd !accent![_ge_G]Bc | 
[V:2] E,2E,,E,2E,, | 
[V:1] [_fd_F]AB!accent![e3_c3E3] | 
[V:2] E,2E,,E,3 | 
[V:1] e2>d2ed & !accent![__B3_F3]x3 | 
[V:2] D,,2z D,_F,__B, | 
[V:1] __B_cB _F_fF | 
[V:2] _F2zz2z | 
[V:1] DED __B,__BB, | 
[V:2] z6 | 
[V:1] A,_B,A, G,_FE | 
[V:2] [D,6E,,6] | 
[V:1] _G,2>-G,2F,E, & C,6 | 
[V:2] A,,,A,,E,, A,,,A,,E,, | 
[V:1] F,2F, F,G,A, & D,6 | 
[V:2] A,,,A,,F,, A,,,A,,F,, | 
[V:1] G,2G, G,A,B, & _F,6 | 
[V:2] A,,,D,_F,, A,,,D,F,, | 
[V:1] C2CC2C & [A,3E,3][A,3=E,3] | 
[V:2] A,,,C,E,, A,,,C,=E,, | 
[V:1] C2CC2C & [A,3F,3][A,3=E,3] | 
[V:2] A,,,C,F,, A,,,C,=E,, | 
[V:1] C2CC2C & [A,3F,3][A,3_F,3] | 
[V:2] A,,,C,F,, A,,,C,_F,, | 
[V:1] _CDC_F2F & _F,3F,3 | 
[V:2] A,,,_C,_F,, G,,,C,F,, | 
[V:1] _CDC_F2F & _F,3F,3 | 
[V:2] A,,,_C,_F,, _F,,,C,F,, | 
[V:1] E2>-E2F_G & C6 | 
[V:2] A,,, z E, A,,A,E, | 
[V:1] F2F FGA & D6 | 
[V:2] A,,A,F, A,,A,F, | 
[V:1] G2G GAB & _F6 | 
[V:2] A,,D_F, A,,DF, | 
[V:1] c2cc2c & [A3E3][A3=E3] | 
[V:2] A,,CE, A,,C=E, | 
[V:1] c2cc2c & [A3F3][A3=E3] | 
[V:2] A,,CF, A,,C=E, | 
[V:1] c2cc2c & [A3F3][A3_F3] | 
[V:2] A,,CF, A,,C_F, | 
[V:1] _cdc_f2f & _F3F3 | 
[V:2] A,,_C_F, G,,CF, | 
[V:1] _cdc_f2f & _F3F3 | 
[V:2] A,,_C_F, _F,,CF, | 
[V:1] [e2c2E2]z_f3- & x2>d2_c__B | 
[V:2] A,,CE, D,_F__B, | 
[V:1] f3e3 & d_c__B GBE | 
[V:2] D,_F__B, E,DG, | 
[V:1] e3_f3- & cBA d_c__B | 
[V:2] A,,CE, D,_F__B, | 
[V:1] f3e3 & d_c__B GBE | 
[V:2] D,_F__B, E,DG, | 
[V:1] e3_f3 & cBA d_c__B | 
[V:2] A,,CE, D,_F__B, | 
[V:1] __b3e3 & d_f__B G_BE | 
[V:2] D,_F__B, E,DG, | 
[V:1] e3_f3 & cBA d_c__B | 
[V:2] A,,CE, D,_F__B, | 
[V:1] __b3e3 & d_f__B G_BE | 
[V:2] D,_F__B, E,DG, | 
[V:1] e3_f3 & cBA d_c__B | 
[V:2] [C2A,2]E,,-!accent![E,2E,,2]=D,, | 
[V:1] _f3=f3 & d_c__B =d=c=B | 
[V:2] !accent![E,2E,,2]=D,,!accent![E,2E,,2]D,, | 
[V:1] f3_g3 & =dc=B e_dc | 
[V:2] [E,2E,,2]=D,,[E,2E,,2]D,, | 
[V:1] _g3=g3 & edc _fed | 
[V:2] [E,2E,,2]=D,,[E,2E,,2]D,, | 
[V:1] [=g_f]ed [a=f_c]e=d | 
[V:2] [E,2E,,2]=D,,[E,2E,,2]D,, | 
[V:1] [=a_gc]fe [b=gd]_g_f | 
[V:2] [E,2E,,2]=D,,[E,2E,,2]D,, | 
[V:1] [=ba=d]_gf [c'=ae]=g^f | 
[V:2] [E,2E,,2]=D,,[E,2E,,2]D,, | 
[V:1] [d'b_f]ag- [e'd'g]be | 
[V:2] [E,2E,,2]=D,,[E,2E,,2]z | 
[V:1] [c'2a2]z !accent![e'_g]f'e' | 
[V:2] .[A,,2A,,,2]A,,A,2A,,, | 
[V:1] !accent![af]ba !accent![d'_f]e'd' | 
[V:2] A,,2A,,A,2A,,, | 
[V:1] !accent![c'e]d'c' !accent![e'_g]f'e' | 
[V:2] A,,2A,,A,2A,,, | 
[V:1] !accent![af]ba !accent![d'_f]e'd' | 
[V:2] A,,2A,,A,2A,, | 
[V:1] !accent![c'e]d'c' !accent![e'_g]f'e' | 
[V:2] A,2A,A2A,, | 
[V:1] [af]ba [d'_f]e'd' | 
[V:2] A,2A,A2A,, | 
[V:1] [c'e]d'c' [e'_g]f'e' | 
[V:2] A,2A,A2A,, | 
[V:1] [af]ba [d'_f]e'd' | 
[V:2] A,2A,A2A,,- | 
[V:1] [a'2c'2]zz2z | 
[V:2] [A,2A,,2]zz2z | 
[V:1] z2z[e3B3G3E3D3] | 
[V:2] z2z[E,,3E,,,3] | 
[V:1] !fermata![c6A6E6C6] |]  
[V:2] !fermata![A,,6A,,,6] |]
